X: 9711
T: Dédicado à Joe
R: reel
M: 4/4
K: Bminor
F4|:B2c2 d2e2|fgfd B3f|fgfd c3f|fgfd B2F2|
B2c2 d2e2|fgfd B3f|fgfd cedc|1 B4 F4:|2 B4 A4||
K: Dmaj
|:f8|g4 ^g4|a3a a4-|a2g2 f2e2|a3a a4-|
a2g2 f2e2|1 f2f2 d2d2|B2B2 A2A2:|2 d2dA BAFA|d4 F4||

